app/style/graphics/spriteSheets/characters/pacman/arrow_down.svg

<?xml version="1.0" encoding="UTF-8"?><svg id="Calque_1" xmlns="http://www.w3.org/2000/svg" viewBox="0 0 32 32"><defs><style>.cls-1{fill:#68ace5;}</style></defs><path class="cls-1" d="M13,25v1h1v1h1v1h1v-1h1v-1h1v-1h-5Z"/></svg>

<svg width="32" height="32" viewBox="0 0 32 32" fill="none" xmlns="http://www.w3.org/2000/svg">
<path d="M13 25V26H14V27H15V28H16V27H17V26H18V25H17H16H15H14H13Z" fill="#FFF295"/>
</svg>
